!!!OTL: "Taubenpost" TAUBEN DAS SIND SCHOENE VOEGEL
!!!ARE: Europa, Mitteleuropa, Deutschland, Rhein
!!!SCT: Z1182
!!!YEM: Copyright 1995, estate of Helmut Schaffrath.
**kern
*ICvox
*Ivox
*M3/4
*k[b-e-a-]
*E-:
{8b-
16b-
16cc
=1
4.b-
8a-
8g
8a-
=2
8cc
8b-
4b-}
{8ee-
8cc
=3
4.b-
16a-
16b-
8a-
8g
=4
4g
4f}
{8b-
16b-
16cc
=5
4.b-
8a-
8g
8a-
=6
8cc
8b-
4b-}
{8ee-
8cc
=7
4.b-
16a-
16b-
8a-
8g
=8
4g
4f}
{8b-
16b-
16cc
=9
4.b-
8a-
8a-
8g
=10
4g
4f}
{8b-
16b-
16cc
=11
4.b-
8a-
8a-
8g
=12
4g
4f}
{8b-
16cc
16dd
=13
8ee-
8cc
8cc
8b-
8b-
16cc
16dd
=14
8ee-
8cc
8cc
8b-}
{8cc
16b-
16a-
=15
4.g
8b-
16b-
16a-
8f
=16
4f
4e-}
{8b-
16cc
16dd
=17
8ee-
8cc
8cc
8b-
8b-
16cc
16dd
=18
8ee-
8cc
8cc
8b-}
{8cc
16b-
16a-
=19
4.g
8b-
16b-
16a-
8f
=20
4e-
4r}
==
!!!AGN: Liebes - Lied
!!!ONB: ESAC (Essen Associative Code) Database: ZUCCAL
!!!AMT: simple triple
!!!AIN: vox
!!!EED: Helmut Schaffrath
!!!EEV: 1.0
*-
